X: 275
%
T: The King's Gun
C:Pipe tune
O:Scotland
B:Keith Norman MacDonald : "The Skye collection of the best reels & strathspeys extant" : 1887
Z:Ralph Palmer
R:Reel
M:C
L:1/8
K:A
e | A<Aag fe a2 | A<A a2 cAAc | A<A ag fe =g2 | B<B =g2 BGG :|
a | A<AeA c2 Aa | A<A eA cAAa | A<AeA c2 Ac | B<B =g2 BGGa |
A<AeA c2 Aa | A<AeA cAAc | d2(fd) c2 (ec) | B<B =g2 BGG |]
W:From Ross's Collection


